X: 1
T: Fisherman's Jig, The
M: 9/8
L: 1/8
R: slip jig
K: Dmaj
FAA FAd AFD|FAA FAd B2A|FAA FAd AFD|EDB, DFA B2A:|
f3/g/f faf edB|f3/g/f fef g2e|f3/g/f faf edB|BAF DFA B2A:|
